X:1
T:Coruña, 87.87 D
T:Coruña, 87.87 D
T:James H. Burke, 1891
T:Public Domain Courtesy of the Cyber Hymnal™
C:James H. Burke, 1891
Z:Public Domain
Z:Courtesy of the Cyber Hymnal™
%%score ( 1 2 ) ( 3 4 )
L:1/8
Q:1/4=98
M:6/8
K:C
V:1 treble 
V:2 treble 
V:3 bass 
V:4 bass 
V:1
 [EG] | [EG]2 [CE] [Ec]2 [EG] | [GB]2 [FA] [FA]2 [FA] | [FA]2 [B,D] ([B,D][CE])[DF] | %4
 [FA]3 [EG]2 [EG] | [EG]2 [CE] [Ec]2 [GB] | [Fd]2 [Fc] [FA]2 [FA] | [EG]2 [EG] (GA)[FB] | %8
 [Fd]3 [Ec]2 [Ec] | [Fd]2 [FG] (GA)[FB] | ([Ec][GB])[FA] [EG]2 [EG] | [FA]2 [FA] (Ad)[=Fc] | %12
 ([GB]2 [^FA]) G2 [=FG] | [Ec]2 [Ec] [EG]2 [G_B] | [G_B]2 [FA] !fermata![FA]2 [FA] | %15
 (Gc)[Ge] [Gf]2 [FB] | [Fd]3 [Ec]2 |] %17
V:2
 x | x6 | x6 | x6 | x6 | x6 | x6 | x3 F2 x | x6 | x3 F2 x | x6 | x3 ^F2 x | x3 G2 x | x6 | x6 | %15
 E2 x4 | x5 |] %17
V:3
 [C,C] | [C,C]2 [C,G,] [C,G,]2 [C,C] | [F,C]2 [F,C] [F,C]2 [F,C] | [G,B,]2 G, G,2 [G,B,] | %4
 [C,C]3 [C,C]2 [C,C] | [C,C]2 [C,G,] [C,G,]2 [E,C] | [F,A,]2 [F,A,] [F,C]2 [F,C] | %7
 [G,C]2 [G,C] (B,C)[G,D] | [G,B,]3 [C,C]2 [C,C] | [G,B,]2 [G,B,] (B,C)[G,D] | %10
 [C,C]2 [C,C] [C,C]2 [C,C] | [F,C]2 [F,C] [D,D]2 [D,D] | (D2 C) [G,B,]2 [G,B,] | %13
 [C,C]2 [C,G,] [C,C]2 [E,C] | [E,C]2 [F,C] !fermata![F,C]2 [F,C] | [G,C]2 [G,C] [G,B,]2 [G,D] | %16
 [G,,B,]3 [C,C]2 |] %17
V:4
 x | x6 | x6 | x2 G, G,2 x | x6 | x6 | x6 | x3 G,2 x | x6 | x3 G,2 x | x6 | x6 | G,3 x3 | x6 | x6 | %15
 x6 | x5 |] %17

